; generated by PrusaSlicer 2.3.3+win64 on 2021-08-06 at 11:42:57 UTC

; 

; external perimeters extrusion width = 0.45mm
; perimeters extrusion width = 0.45mm
; infill extrusion width = 0.45mm
; solid infill extrusion width = 0.45mm
; top infill extrusion width = 0.40mm
; first layer extrusion width = 0.42mm

M73 P0 R46
M73 Q0 S46
M201 X1000 Y1000 Z200 E5000 ; sets maximum accelerations, mm/sec^2
M203 X200 Y200 Z12 E120 ; sets maximum feedrates, mm/sec
M204 P1250 R1250 T1250 ; sets acceleration (P, T) and retract acceleration (R), mm/sec^2
M205 X8.00 Y8.00 Z0.40 E4.50 ; sets the jerk limits, mm/sec
M205 S0 T0 ; sets the minimum extruding and travel feed rate, mm/sec
M107
;TYPE:Custom
M862.3 P "MK3S" ; printer model check
M862.1 P0.4 ; nozzle diameter check
M115 U3.10.0 ; tell printer latest fw version
G90 ; use absolute coordinates
M83 ; extruder relative mode
M104 S215 ; set extruder temp
M140 S60 ; set bed temp
M190 S60 ; wait for bed temp
M109 S215 ; wait for extruder temp
G28 W ; home all without mesh bed level
G80 ; mesh bed leveling
G1 Y-3.0 F1000.0 ; go outside print area
G92 E0.0
G1 X60.0 E9.0 F1000.0 ; intro line
G1 X100.0 E12.5 F1000.0 ; intro line
G92 E0.0
M221 S95

; Don't change E values below. Excessive value can damage the printer.
M907 E430 ; set extruder motor current
G21 ; set units to millimeters
G90 ; use absolute coordinates
M83 ; use relative distances for extrusion
M900 K0.05 ; Filament gcode LA 1.5
M900 K30 ; Filament gcode LA 1.0
;LAYER_CHANGE
;Z:0.2
;HEIGHT:0.2
;BEFORE_LAYER_CHANGE
G92 E0.0
;0.2


G1 E-0.80000 F2100.000
G1 Z0.400 F10800.000
;AFTER_LAYER_CHANGE
;0.2
G1 X95.656 Y87.551
G1 Z0.200
G1 E0.80000 F2100.000
M204 S1000
;TYPE:Skirt
;WIDTH:0.42
G1 F1200.000
G1 X96.954 Y85.939 E0.06489
G1 X98.034 Y84.971 E0.04548
G1 X99.197 Y84.176 E0.04417
G1 X119.119 Y72.767 E0.71983
G1 X120.387 Y72.216 E0.04333
G1 X121.201 Y71.957 E0.02680
G1 X122.515 Y71.681 E0.04209
G1 X123.950 Y71.569 E0.04512
G1 X125.387 Y71.646 E0.04512
G1 X127.310 Y72.057 E0.06167
G1 X128.685 Y72.588 E0.04619
G1 X129.930 Y73.271 E0.04453
G1 X153.566 Y89.886 E0.90588
M73 P0 R45
G1 X154.652 Y90.792 E0.04433
G1 X155.573 Y91.785 E0.04250
G1 X156.076 Y92.451 E0.02615
G1 X156.771 Y93.588 E0.04178
G1 X157.572 Y95.541 E0.06620
G1 X157.983 Y97.620 E0.06643
G1 X157.983 Y99.724 E0.06596
G1 X157.575 Y101.803 E0.06643
G1 X156.777 Y103.753 E0.06608
G1 X155.616 Y105.516 E0.06619
G1 X154.150 Y107.009 E0.06560
G1 X152.389 Y108.215 E0.06691
G1 X150.438 Y109.050 E0.06654
G1 X127.578 Y116.188 E0.75091
G1 X126.044 Y116.464 E0.04886
G1 X123.942 Y116.484 E0.06590
G1 X122.616 Y116.286 E0.04202
G1 X121.329 Y115.926 E0.04190
G1 X120.545 Y115.620 E0.02639
G1 X119.371 Y115.023 E0.04131
G1 X99.145 Y102.868 E0.73989
G1 X97.549 Y101.701 E0.06198
G1 X96.497 Y100.637 E0.04691
G1 X95.292 Y98.930 E0.06552
G1 X94.449 Y97.062 E0.06425
G1 X93.964 Y95.020 E0.06583
G1 X93.863 Y93.466 E0.04881
G1 X94.068 Y91.430 E0.06417
G1 X94.674 Y89.411 E0.06608
G1 X95.628 Y87.604 E0.06407
; printing object BNC Cap v3.stl id:2 copy 0
;WIPE_START
G1 F8640.000
G1 X96.954 Y85.939 E-0.49149
G1 X97.820 Y85.163 E-0.26851
;WIPE_END
G1 E-0.04000 F2100.000
G1 Z0.600 F10800.000
G1 X140.026 Y97.274
G1 Z0.200
G1 E0.80000 F2100.000
;TYPE:Perimeter
G1 F1200.000
G1 X140.132 Y96.815 E0.01475
G1 X140.267 Y96.365 E0.01475
G1 X140.431 Y95.924 E0.01475
G1 X140.624 Y95.495 E0.01475
G1 X140.842 Y95.081 E0.01468
G1 X141.086 Y94.683 E0.01462
G1 X141.503 Y94.120 E0.02198
G1 X141.980 Y93.578 E0.02264
G1 X142.316 Y93.258 E0.01454
G1 X142.677 Y92.956 E0.01475
G1 X143.057 Y92.679 E0.01475
G1 X143.453 Y92.426 E0.01475
G1 X143.866 Y92.200 E0.01475
G1 X144.292 Y92.001 E0.01475
G1 X144.730 Y91.829 E0.01475
G1 X145.178 Y91.687 E0.01475
G1 X145.635 Y91.574 E0.01475
G1 X146.098 Y91.490 E0.01475
G1 X146.559 Y91.438 E0.01455
G1 X147.260 Y91.419 E0.02198
G1 X147.980 Y91.461 E0.02264
G1 X148.439 Y91.528 E0.01454
G1 X148.893 Y91.625 E0.01455
G1 X149.564 Y91.830 E0.02198
G1 X150.234 Y92.100 E0.02264
G1 X150.647 Y92.310 E0.01454
G1 X151.052 Y92.549 E0.01475
G1 X151.440 Y92.814 E0.01475
G1 X151.811 Y93.104 E0.01475
G1 X152.162 Y93.418 E0.01475
G1 X152.487 Y93.748 E0.01455
G1 X152.934 Y94.288 E0.02198
G1 X153.345 Y94.882 E0.02264
G1 X153.575 Y95.285 E0.01454
G1 X153.781 Y95.708 E0.01475
G1 X153.959 Y96.143 E0.01475
G1 X154.109 Y96.589 E0.01475
G1 X154.229 Y97.044 E0.01475
G1 X154.320 Y97.505 E0.01475
G1 X154.381 Y97.972 E0.01475
G1 X154.411 Y98.441 E0.01475
G1 X154.411 Y98.911 E0.01475
G1 X154.381 Y99.381 E0.01475
G1 X154.320 Y99.847 E0.01475
G1 X154.229 Y100.309 E0.01475
G1 X154.109 Y100.763 E0.01475
G1 X153.959 Y101.209 E0.01475
G1 X153.781 Y101.645 E0.01475
G1 X153.575 Y102.067 E0.01475
G1 X153.342 Y102.476 E0.01475
G1 X153.086 Y102.864 E0.01455
G1 X152.652 Y103.414 E0.02198
G1 X152.157 Y103.939 E0.02264
G1 X151.811 Y104.248 E0.01454
G1 X151.440 Y104.538 E0.01475
G1 X151.052 Y104.803 E0.01475
G1 X150.647 Y105.043 E0.01475
G1 X150.228 Y105.256 E0.01475
G1 X149.795 Y105.441 E0.01475
G1 X149.352 Y105.598 E0.01475
G1 X148.899 Y105.726 E0.01475
G1 X148.439 Y105.824 E0.01475
G1 X147.974 Y105.892 E0.01475
G1 X147.505 Y105.930 E0.01475
G1 X147.041 Y105.938 E0.01455
G1 X146.342 Y105.889 E0.02198
G1 X145.628 Y105.777 E0.02264
G1 X145.178 Y105.666 E0.01454
G1 X144.730 Y105.523 E0.01475
G1 X144.292 Y105.352 E0.01475
G1 X143.866 Y105.153 E0.01475
G1 X143.453 Y104.926 E0.01475
G1 X143.057 Y104.674 E0.01475
G1 X142.677 Y104.396 E0.01475
G1 X142.316 Y104.095 E0.01475
G1 X141.980 Y103.774 E0.01455
G1 X141.516 Y103.249 E0.02198
G1 X141.086 Y102.669 E0.02264
G1 X140.842 Y102.272 E0.01461
G1 X140.624 Y101.858 E0.01468
G1 X140.434 Y101.434 E0.01456
G1 X140.203 Y100.772 E0.02198
G1 X140.025 Y100.072 E0.02264
G1 X139.951 Y99.615 E0.01454
G1 X139.905 Y99.146 E0.01475
G1 X139.890 Y98.676 E0.01475
G1 X139.905 Y98.206 E0.01475
G1 X139.951 Y97.738 E0.01475
G1 X140.017 Y97.333 E0.01287
G1 X139.645 Y97.272 F10800.000
;TYPE:External perimeter
G1 F1200.000
G1 X139.767 Y96.719 E0.01777
G1 X139.910 Y96.245 E0.01551
G1 X140.082 Y95.781 E0.01551
G1 X140.284 Y95.330 E0.01551
G1 X140.514 Y94.894 E0.01545
G1 X140.773 Y94.472 E0.01551
G1 X141.209 Y93.882 E0.02299
G1 X141.708 Y93.316 E0.02367
G1 X142.065 Y92.977 E0.01544
G1 X142.444 Y92.659 E0.01551
G1 X142.844 Y92.367 E0.01551
G1 X143.261 Y92.101 E0.01551
G1 X143.695 Y91.863 E0.01551
G1 X144.143 Y91.654 E0.01551
G1 X144.604 Y91.474 E0.01551
G1 X145.076 Y91.324 E0.01551
G1 X145.556 Y91.205 E0.01551
G1 X146.043 Y91.117 E0.01551
G1 X146.532 Y91.062 E0.01544
G1 X147.265 Y91.041 E0.02299
G1 X148.019 Y91.086 E0.02367
G1 X148.506 Y91.157 E0.01544
G1 X148.988 Y91.260 E0.01544
G1 X149.689 Y91.474 E0.02299
G1 X150.390 Y91.756 E0.02367
G1 X150.829 Y91.979 E0.01544
G1 X151.255 Y92.231 E0.01551
G1 X151.663 Y92.510 E0.01551
G1 X152.053 Y92.815 E0.01551
G1 X152.422 Y93.144 E0.01551
G1 X152.768 Y93.495 E0.01544
G1 X153.235 Y94.060 E0.02299
G1 X153.665 Y94.681 E0.02367
G1 X153.909 Y95.109 E0.01544
G1 X154.125 Y95.554 E0.01551
G1 X154.313 Y96.012 E0.01551
G1 X154.470 Y96.481 E0.01551
G1 X154.597 Y96.959 E0.01551
G1 X154.693 Y97.444 E0.01551
G1 X154.757 Y97.935 E0.01551
G1 X154.789 Y98.429 E0.01551
G1 X154.789 Y98.924 E0.01551
G1 X154.757 Y99.417 E0.01551
G1 X154.693 Y99.908 E0.01551
G1 X154.597 Y100.394 E0.01551
G1 X154.470 Y100.872 E0.01551
G1 X154.313 Y101.341 E0.01551
G1 X154.125 Y101.799 E0.01551
G1 X153.909 Y102.244 E0.01551
G1 X153.663 Y102.673 E0.01551
G1 X153.392 Y103.085 E0.01544
G1 X152.938 Y103.660 E0.02299
G1 X152.420 Y104.210 E0.02367
G1 X152.053 Y104.538 E0.01544
G1 X151.663 Y104.843 E0.01551
G1 X151.255 Y105.122 E0.01551
G1 X150.829 Y105.374 E0.01551
G1 X150.388 Y105.598 E0.01551
G1 X149.933 Y105.793 E0.01551
G1 X149.466 Y105.958 E0.01551
G1 X148.990 Y106.092 E0.01551
G1 X148.506 Y106.195 E0.01551
G1 X148.017 Y106.267 E0.01551
G1 X147.524 Y106.307 E0.01551
G1 X147.031 Y106.315 E0.01544
G1 X146.299 Y106.264 E0.02299
G1 X145.554 Y106.147 E0.02367
G1 X145.076 Y106.029 E0.01544
G1 X144.604 Y105.879 E0.01551
G1 X144.143 Y105.699 E0.01551
G1 X143.695 Y105.489 E0.01551
G1 X143.261 Y105.251 E0.01551
G1 X142.844 Y104.985 E0.01551
G1 X142.444 Y104.693 E0.01551
G1 X142.065 Y104.376 E0.01551
G1 X141.708 Y104.036 E0.01544
G1 X141.222 Y103.487 E0.02299
G1 X140.773 Y102.880 E0.02367
G1 X140.514 Y102.459 E0.01551
G1 X140.284 Y102.023 E0.01545
G1 X140.083 Y101.573 E0.01545
G1 X139.842 Y100.881 E0.02299
G1 X139.656 Y100.149 E0.02367
G1 X139.576 Y99.663 E0.01544
G1 X139.528 Y99.171 E0.01551
G1 X139.512 Y98.676 E0.01551
G1 X139.528 Y98.182 E0.01551
G1 X139.576 Y97.689 E0.01551
G1 X139.635 Y97.331 E0.01137
G1 X140.022 Y97.140 F10800.000
;WIPE_START
G1 F8640.000
G1 X139.767 Y96.719 E-0.14473
G1 X139.910 Y96.245 E-0.11425
G1 X140.082 Y95.781 E-0.11425
G1 X140.284 Y95.330 E-0.11426
G1 X140.514 Y94.894 E-0.11378
G1 X140.773 Y94.472 E-0.11421
G1 X140.888 Y94.317 E-0.04452
;WIPE_END
G1 E-0.04000 F2100.000
G1 Z0.600 F10800.000
G1 X153.166 Y94.822
G1 Z0.200
G1 E0.80000 F2100.000
;TYPE:Solid infill
;WIDTH:0.420141
G1 F1200.000
G1 X151.966 Y93.621 E0.05324
G1 X151.629 Y93.321 E0.01414
G1 X151.273 Y93.043 E0.01418
G1 X150.900 Y92.788 E0.01418
G1 X150.221 Y92.411 E0.02436
G1 X153.417 Y95.606 E0.14175
G1 X153.694 Y96.242 E0.02176
G1 X153.782 Y96.505 E0.00871
G1 X149.332 Y92.055 E0.19740
G1 X148.822 Y91.899 E0.01672
G1 X148.595 Y91.851 E0.00731
G1 X153.979 Y97.235 E0.23884
G1 X154.083 Y97.873 E0.02026
G1 X147.953 Y91.743 E0.27191
G1 X147.386 Y91.709 E0.01781
G1 X154.129 Y98.452 E0.29908
G1 X154.124 Y98.980 E0.01657
G1 X146.856 Y91.713 E0.32238
G1 X146.356 Y91.746 E0.01573
G1 X154.084 Y99.474 E0.34280
M73 Q0 S45
G1 X154.014 Y99.938 E0.01472
G1 X145.891 Y91.815 E0.36031
G1 X145.453 Y91.910 E0.01407
G1 X153.919 Y100.376 E0.37553
G1 X153.801 Y100.792 E0.01355
G1 X145.038 Y92.028 E0.38873
G1 X144.643 Y92.167 E0.01312
G1 X153.663 Y101.187 E0.40010
M73 Q1 S45
G1 X153.506 Y101.563 E0.01280
G1 X144.267 Y92.324 E0.40983
M73 P1 R45
G1 X143.908 Y92.499 E0.01252
G1 X153.331 Y101.922 E0.41799
G1 X153.138 Y102.263 E0.01228
G1 X143.566 Y92.690 E0.42463
G1 X143.240 Y92.897 E0.01212
G1 X152.930 Y102.588 E0.42984
G1 X152.702 Y102.894 E0.01196
G1 X142.930 Y93.122 E0.43347
G1 X142.635 Y93.360 E0.01190
G1 X152.467 Y103.192 E0.43612
G1 X152.211 Y103.469 E0.01184
G1 X142.354 Y93.612 E0.43724
G1 X142.090 Y93.881 E0.01183
G1 X151.952 Y103.744 E0.43746
G1 X151.670 Y103.995 E0.01185
G1 X141.840 Y94.165 E0.43605
G1 X141.602 Y94.461 E0.01190
G1 X151.373 Y104.232 E0.43342
G1 X151.062 Y104.454 E0.01199
G1 X141.375 Y94.768 E0.42968
G1 X141.167 Y95.092 E0.01211
G1 X150.736 Y104.662 E0.42448
G1 X150.511 Y104.795 E0.00820
G1 X150.395 Y104.854 E0.00409
G1 X140.975 Y95.434 E0.41783
G1 X140.800 Y95.793 E0.01251
G1 X150.037 Y105.030 E0.40974
G1 X149.662 Y105.188 E0.01277
G1 X140.642 Y96.168 E0.40011
G1 X140.503 Y96.563 E0.01312
G1 X149.268 Y105.328 E0.38880
G1 X148.852 Y105.445 E0.01356
G1 X140.385 Y96.978 E0.37560
G1 X140.290 Y97.416 E0.01407
G1 X148.414 Y105.540 E0.36038
G1 X147.950 Y105.610 E0.01471
G1 X140.221 Y97.881 E0.34286
G1 X140.182 Y98.376 E0.01557
G1 X147.455 Y105.648 E0.32260
G1 X146.919 Y105.646 E0.01681
G1 X140.180 Y98.907 E0.29893
G1 X140.222 Y99.482 E0.01809
G1 X146.343 Y105.603 E0.27152
G1 X145.710 Y105.504 E0.02010
G1 X140.330 Y100.124 E0.23863
G1 X140.534 Y100.861 E0.02397
G1 X144.978 Y105.305 E0.19714
G1 X144.403 Y105.092 E0.01922
G1 X144.080 Y104.941 E0.01119
G1 X140.545 Y101.406 E0.15679
; stop printing object BNC Cap v3.stl id:2 copy 0
; printing object BNC Cap v3.stl id:0 copy 0
;WIPE_START
G1 F8640.000
G1 X142.873 Y103.733 E-0.76000
;WIPE_END
G1 E-0.04000 F2100.000
G1 Z0.600 F10800.000
G1 X131.884 Y103.702
G1 Z0.200
G1 E0.80000 F2100.000
;TYPE:Perimeter
;WIDTH:0.42
G1 F1200.000
G1 X132.057 Y104.474 E0.02480
G1 X132.118 Y104.940 E0.01475
G1 X132.149 Y105.409 E0.01475
G1 X132.149 Y105.880 E0.01475
G1 X132.118 Y106.349 E0.01475
G1 X132.057 Y106.816 E0.01475
G1 X131.966 Y107.277 E0.01475
G1 X131.846 Y107.732 E0.01475
G1 X131.696 Y108.178 E0.01475
G1 X131.518 Y108.613 E0.01475
G1 X131.312 Y109.036 E0.01475
G1 X131.079 Y109.444 E0.01475
G1 X130.823 Y109.832 E0.01455
G1 X130.389 Y110.382 E0.02198
G1 X129.894 Y110.908 E0.02264
G1 X129.548 Y111.217 E0.01454
G1 X129.178 Y111.506 E0.01475
G1 X128.789 Y111.772 E0.01475
G1 X128.384 Y112.011 E0.01475
G1 X127.965 Y112.224 E0.01475
G1 X127.533 Y112.409 E0.01475
G1 X127.089 Y112.566 E0.01475
G1 X126.636 Y112.694 E0.01475
G1 X126.176 Y112.792 E0.01475
G1 X125.711 Y112.861 E0.01475
G1 X125.242 Y112.899 E0.01475
G1 X124.778 Y112.906 E0.01455
G1 X124.079 Y112.858 E0.02198
G1 X123.366 Y112.745 E0.02264
G1 X122.915 Y112.634 E0.01454
G1 X122.467 Y112.491 E0.01475
G1 X122.029 Y112.320 E0.01475
G1 X121.603 Y112.121 E0.01475
G1 X121.190 Y111.895 E0.01475
G1 X120.794 Y111.642 E0.01475
G1 X120.414 Y111.364 E0.01475
G1 X120.053 Y111.063 E0.01475
G1 X119.717 Y110.743 E0.01455
G1 X119.253 Y110.218 E0.02198
G1 X118.823 Y109.637 E0.02264
G1 X118.579 Y109.240 E0.01461
G1 X118.361 Y108.826 E0.01468
G1 X118.171 Y108.402 E0.01456
G1 X117.940 Y107.740 E0.02198
G1 X117.762 Y107.041 E0.02264
G1 X117.688 Y106.583 E0.01454
G1 X117.642 Y106.115 E0.01475
G1 X117.627 Y105.645 E0.01475
G1 X117.642 Y105.174 E0.01475
G1 X117.688 Y104.706 E0.01475
G1 X117.763 Y104.242 E0.01475
G1 X117.869 Y103.784 E0.01475
G1 X118.004 Y103.333 E0.01475
G1 X118.168 Y102.892 E0.01475
G1 X118.361 Y102.463 E0.01475
G1 X118.579 Y102.049 E0.01468
G1 X118.823 Y101.652 E0.01462
G1 X119.240 Y101.088 E0.02198
G1 X119.717 Y100.546 E0.02264
G1 X120.053 Y100.226 E0.01454
G1 X120.414 Y99.925 E0.01475
G1 X120.794 Y99.647 E0.01475
G1 X121.190 Y99.394 E0.01475
G1 X121.603 Y99.168 E0.01475
G1 X122.029 Y98.969 E0.01475
G1 X122.467 Y98.798 E0.01475
G1 X122.915 Y98.655 E0.01475
G1 X123.372 Y98.542 E0.01475
G1 X123.835 Y98.459 E0.01475
G1 X124.296 Y98.406 E0.01455
G1 X124.997 Y98.387 E0.02198
G1 X125.718 Y98.429 E0.02264
G1 X126.176 Y98.497 E0.01454
G1 X126.630 Y98.594 E0.01455
G1 X127.301 Y98.798 E0.02198
G1 X127.971 Y99.068 E0.02264
G1 X128.384 Y99.278 E0.01454
G1 X128.789 Y99.517 E0.01475
G1 X129.178 Y99.783 E0.01475
G1 X129.548 Y100.073 E0.01475
G1 X129.899 Y100.386 E0.01475
G1 X130.224 Y100.717 E0.01455
G1 X130.671 Y101.257 E0.02198
G1 X131.082 Y101.850 E0.02264
G1 X131.312 Y102.253 E0.01454
G1 X131.518 Y102.676 E0.01475
G1 X131.696 Y103.111 E0.01475
G1 X131.869 Y103.644 E0.01754
G1 X132.233 Y103.547 F10800.000
;TYPE:External perimeter
G1 F1200.000
G1 X132.334 Y103.927 E0.01233
G1 X132.430 Y104.413 E0.01551
G1 X132.494 Y104.903 E0.01551
G1 X132.526 Y105.397 E0.01551
G1 X132.526 Y105.892 E0.01551
G1 X132.494 Y106.386 E0.01551
G1 X132.430 Y106.876 E0.01551
G1 X132.334 Y107.362 E0.01551
G1 X132.207 Y107.840 E0.01551
G1 X132.050 Y108.309 E0.01551
G1 X131.862 Y108.767 E0.01551
G1 X131.646 Y109.212 E0.01551
G1 X131.401 Y109.642 E0.01551
G1 X131.129 Y110.053 E0.01544
G1 X130.675 Y110.628 E0.02299
G1 X130.157 Y111.178 E0.02367
G1 X129.790 Y111.506 E0.01544
G1 X129.400 Y111.811 E0.01551
G1 X128.992 Y112.090 E0.01551
G1 X128.566 Y112.342 E0.01551
G1 X128.125 Y112.566 E0.01551
G1 X127.670 Y112.761 E0.01551
G1 X127.203 Y112.926 E0.01551
G1 X126.727 Y113.060 E0.01551
G1 X126.243 Y113.164 E0.01551
G1 X125.754 Y113.236 E0.01551
G1 X125.261 Y113.276 E0.01551
G1 X124.768 Y113.284 E0.01544
G1 X124.036 Y113.233 E0.02299
G1 X123.291 Y113.115 E0.02367
G1 X122.813 Y112.997 E0.01544
G1 X122.341 Y112.847 E0.01551
G1 X121.880 Y112.667 E0.01551
G1 X121.432 Y112.458 E0.01551
G1 X120.998 Y112.219 E0.01551
G1 X120.581 Y111.954 E0.01551
G1 X120.182 Y111.662 E0.01551
G1 X119.802 Y111.344 E0.01551
G1 X119.445 Y111.005 E0.01544
G1 X118.959 Y110.455 E0.02299
G1 X118.510 Y109.849 E0.02367
G1 X118.252 Y109.427 E0.01551
G1 X118.022 Y108.991 E0.01545
G1 X117.820 Y108.542 E0.01545
G1 X117.579 Y107.849 E0.02299
G1 X117.393 Y107.118 E0.02367
G1 X117.314 Y106.632 E0.01544
G1 X117.266 Y106.139 E0.01551
G1 X117.249 Y105.645 E0.01551
G1 X117.266 Y105.150 E0.01551
G1 X117.314 Y104.658 E0.01551
G1 X117.393 Y104.169 E0.01551
G1 X117.505 Y103.687 E0.01551
G1 X117.647 Y103.213 E0.01551
G1 X117.819 Y102.749 E0.01551
