; generated by PrusaSlicer 2.3.3+win64 on 2021-08-06 at 11:41:17 UTC

; 

; external perimeters extrusion width = 0.45mm
; perimeters extrusion width = 0.45mm
; infill extrusion width = 0.45mm
; solid infill extrusion width = 0.45mm
; top infill extrusion width = 0.40mm
; first layer extrusion width = 0.42mm

M73 P0 R25
M73 Q0 S25
M201 X1000 Y1000 Z200 E5000 ; sets maximum accelerations, mm/sec^2
M203 X200 Y200 Z12 E120 ; sets maximum feedrates, mm/sec
M204 P1250 R1250 T1250 ; sets acceleration (P, T) and retract acceleration (R), mm/sec^2
M205 X8.00 Y8.00 Z0.40 E4.50 ; sets the jerk limits, mm/sec
M205 S0 T0 ; sets the minimum extruding and travel feed rate, mm/sec
M107
;TYPE:Custom
M862.3 P "MK3S" ; printer model check
M862.1 P0.4 ; nozzle diameter check
M115 U3.10.0 ; tell printer latest fw version
G90 ; use absolute coordinates
M83 ; extruder relative mode
M104 S215 ; set extruder temp
M140 S60 ; set bed temp
M190 S60 ; wait for bed temp
M109 S215 ; wait for extruder temp
G28 W ; home all without mesh bed level
G80 ; mesh bed leveling
G1 Y-3.0 F1000.0 ; go outside print area
G92 E0.0
G1 X60.0 E9.0 F1000.0 ; intro line
G1 X100.0 E12.5 F1000.0 ; intro line
G92 E0.0
M221 S95

; Don't change E values below. Excessive value can damage the printer.
M907 E430 ; set extruder motor current
G21 ; set units to millimeters
G90 ; use absolute coordinates
M83 ; use relative distances for extrusion
M900 K0.05 ; Filament gcode LA 1.5
M900 K30 ; Filament gcode LA 1.0
;LAYER_CHANGE
;Z:0.2
;HEIGHT:0.2
;BEFORE_LAYER_CHANGE
G92 E0.0
;0.2


G1 E-0.80000 F2100.000
G1 Z0.400 F10800.000
;AFTER_LAYER_CHANGE
;0.2
G1 X92.440 Y100.636
M73 P0 R24
G1 Z0.200
G1 E0.80000 F2100.000
M204 S1000
;TYPE:Skirt
;WIDTH:0.42
G1 F1200.000
G1 X93.897 Y99.059 E0.06731
G1 X94.952 Y98.229 E0.04209
G1 X95.666 Y97.773 E0.02658
G1 X97.580 Y96.885 E0.06616
G1 X98.867 Y96.518 E0.04196
G1 X99.692 Y96.367 E0.02632
G1 X124.869 Y93.937 E0.79306
G1 X126.878 Y94.098 E0.06321
G1 X128.365 Y94.461 E0.04799
G1 X130.254 Y95.265 E0.06436
G1 X131.596 Y96.120 E0.04991
G1 X133.085 Y97.449 E0.06257
G1 X134.083 Y98.687 E0.04985
G1 X135.096 Y100.479 E0.06455
G1 X135.758 Y102.426 E0.06449
G1 X136.016 Y104.001 E0.05004
G1 X136.011 Y106.058 E0.06449
G1 X135.759 Y107.568 E0.04799
G1 X135.102 Y109.508 E0.06423
G1 X134.380 Y110.862 E0.04812
G1 X133.137 Y112.495 E0.06436
G1 X132.030 Y113.541 E0.04773
G1 X130.357 Y114.680 E0.06347
G1 X129.607 Y115.057 E0.02632
G1 X128.355 Y115.543 E0.04209
G1 X126.273 Y115.991 E0.06680
G1 X102.449 Y118.319 E0.75053
M73 Q0 S24
G1 X100.452 Y118.354 E0.06264
G1 X99.078 Y118.165 E0.04348
G1 X98.165 Y117.942 E0.02948
G1 X96.880 Y117.481 E0.04279
G1 X95.555 Y116.800 E0.04670
G1 X94.432 Y116.028 E0.04273
G1 X93.364 Y115.073 E0.04491
G1 X92.434 Y113.995 E0.04465
G1 X91.643 Y112.795 E0.04508
G1 X90.768 Y110.840 E0.06714
G1 X90.286 Y108.748 E0.06731
G1 X90.217 Y106.603 E0.06731
G1 X90.564 Y104.480 E0.06744
G1 X91.312 Y102.472 E0.06718
G1 X92.409 Y100.687 E0.06568
G1 X92.728 Y100.884 F10800.000
G1 F1200.000
G1 X94.146 Y99.342 E0.06567
G1 X95.174 Y98.534 E0.04100
G1 X95.870 Y98.091 E0.02588
G1 X97.703 Y97.241 E0.06335
G1 X99.742 Y96.741 E0.06585
G1 X124.866 Y94.314 E0.79139
M73 Q1 S24
G1 X126.823 Y94.471 E0.06156
M73 P1 R24
G1 X128.245 Y94.818 E0.04588
G1 X130.082 Y95.601 E0.06263
G1 X131.365 Y96.417 E0.04767
G1 X132.812 Y97.710 E0.06085
G1 X133.768 Y98.894 E0.04772
G1 X134.751 Y100.631 E0.06258
G1 X135.394 Y102.527 E0.06275
G1 X135.640 Y104.031 E0.04779
G1 X135.635 Y106.028 E0.06263
G1 X135.393 Y107.477 E0.04605
G1 X134.755 Y109.360 E0.06235
G1 X134.064 Y110.656 E0.04605
G1 X132.855 Y112.244 E0.06258
G1 X131.793 Y113.248 E0.04581
G1 X130.151 Y114.363 E0.06223
G1 X128.239 Y115.184 E0.06525
G1 X126.234 Y115.615 E0.06430
G1 X102.421 Y117.943 E0.75019
G1 X101.013 Y118.003 E0.04419
G1 X99.699 Y117.893 E0.04135
G1 X98.342 Y117.602 E0.04350
G1 X97.045 Y117.142 E0.04314
G1 X95.805 Y116.512 E0.04362
G1 X94.669 Y115.735 E0.04314
G1 X93.638 Y114.813 E0.04338
G1 X92.733 Y113.766 E0.04338
G1 X91.960 Y112.590 E0.04413
G1 X91.125 Y110.718 E0.06426
G1 X90.660 Y108.697 E0.06502
G1 X90.593 Y106.625 E0.06501
G1 X90.930 Y104.571 E0.06525
G1 X91.652 Y102.635 E0.06478
G1 X92.697 Y100.935 E0.06259
; printing object BNC Cap v3.stl id:1 copy 0
;WIPE_START
G1 F8640.000
G1 X94.146 Y99.342 E-0.49720
G1 X95.041 Y98.639 E-0.26280
;WIPE_END
G1 E-0.04000 F2100.000
G1 Z0.600 F10800.000
G1 X95.602 Y103.085
G1 Z0.200
G1 E0.80000 F2100.000
;TYPE:Perimeter
G1 F1200.000
G1 X95.763 Y102.868 E0.00848
G1 X96.218 Y102.352 E0.02157
G1 X96.545 Y102.041 E0.01417
G1 X96.897 Y101.747 E0.01437
G1 X97.267 Y101.476 E0.01437
G1 X97.654 Y101.230 E0.01437
G1 X98.055 Y101.010 E0.01437
G1 X98.470 Y100.816 E0.01437
G1 X98.897 Y100.649 E0.01437
G1 X99.334 Y100.510 E0.01437
G1 X99.779 Y100.400 E0.01437
G1 X100.230 Y100.319 E0.01437
G1 X100.679 Y100.267 E0.01417
G1 X101.377 Y100.249 E0.02191
G1 X102.064 Y100.290 E0.02157
G1 X102.511 Y100.355 E0.01417
G1 X102.953 Y100.450 E0.01417
G1 X103.622 Y100.655 E0.02191
G1 X104.259 Y100.912 E0.02157
G1 X104.663 Y101.117 E0.01417
G1 X105.057 Y101.350 E0.01437
G1 X105.435 Y101.608 E0.01437
G1 X105.796 Y101.891 E0.01437
G1 X106.138 Y102.196 E0.01437
G1 X106.455 Y102.518 E0.01417
G1 X106.900 Y103.057 E0.02191
G1 X107.288 Y103.618 E0.02137
G1 X107.617 Y104.227 E0.02172
G1 X107.891 Y104.858 E0.02157
G1 X108.035 Y105.286 E0.01417
G1 X108.153 Y105.729 E0.01437
G1 X108.241 Y106.179 E0.01437
G1 X108.300 Y106.633 E0.01437
G1 X108.330 Y107.091 E0.01437
G1 X108.330 Y107.542 E0.01417
G1 X108.270 Y108.239 E0.02191
G1 X108.152 Y108.910 E0.02137
G1 X107.960 Y109.575 E0.02171
G1 X107.713 Y110.217 E0.02157
G1 X107.515 Y110.624 E0.01417
G1 X107.288 Y111.022 E0.01437
G1 X107.039 Y111.399 E0.01417
G1 X106.606 Y111.947 E0.02191
G1 X106.138 Y112.443 E0.02137
G1 X105.611 Y112.893 E0.02171
G1 X105.057 Y113.289 E0.02137
G1 X104.453 Y113.629 E0.02171
G1 X103.827 Y113.913 E0.02157
G1 X103.401 Y114.064 E0.01417
G1 X102.960 Y114.188 E0.01437
G1 X102.511 Y114.284 E0.01437
G1 X102.058 Y114.351 E0.01437
G1 X101.601 Y114.388 E0.01437
G1 X101.143 Y114.395 E0.01437
G1 X100.685 Y114.373 E0.01437
G1 X100.230 Y114.321 E0.01437
G1 X99.779 Y114.240 E0.01437
G1 X99.334 Y114.129 E0.01437
G1 X98.897 Y113.991 E0.01437
G1 X98.470 Y113.824 E0.01437
G1 X98.055 Y113.630 E0.01437
G1 X97.654 Y113.409 E0.01437
G1 X97.267 Y113.163 E0.01437
G1 X96.897 Y112.893 E0.01437
G1 X96.545 Y112.599 E0.01437
G1 X96.214 Y112.283 E0.01437
G1 X95.903 Y111.946 E0.01437
G1 X95.615 Y111.589 E0.01437
G1 X95.350 Y111.215 E0.01437
G1 X95.109 Y110.823 E0.01443
G1 X94.896 Y110.420 E0.01431
G1 X94.709 Y110.001 E0.01437
G1 X94.549 Y109.572 E0.01437
G1 X94.418 Y109.133 E0.01437
G1 X94.315 Y108.686 E0.01437
G1 X94.241 Y108.234 E0.01437
G1 X94.196 Y107.778 E0.01437
G1 X94.181 Y107.320 E0.01437
G1 X94.196 Y106.862 E0.01437
G1 X94.241 Y106.406 E0.01437
G1 X94.315 Y105.953 E0.01437
G1 X94.418 Y105.507 E0.01437
G1 X94.549 Y105.068 E0.01437
G1 X94.709 Y104.638 E0.01437
G1 X94.896 Y104.220 E0.01437
G1 X95.109 Y103.816 E0.01431
G1 X95.347 Y103.430 E0.01423
G1 X95.566 Y103.134 E0.01155
G1 X95.263 Y102.909 F10800.000
;TYPE:External perimeter
G1 F1200.000
G1 X95.469 Y102.631 E0.01087
G1 X95.946 Y102.091 E0.02259
G1 X96.294 Y101.759 E0.01507
G1 X96.665 Y101.450 E0.01514
G1 X97.054 Y101.165 E0.01514
G1 X97.461 Y100.905 E0.01514
G1 X97.885 Y100.673 E0.01514
G1 X98.322 Y100.469 E0.01514
G1 X98.771 Y100.293 E0.01514
G1 X99.232 Y100.147 E0.01514
G1 X99.700 Y100.031 E0.01514
G1 X100.175 Y99.945 E0.01514
G1 X100.652 Y99.891 E0.01506
G1 X101.384 Y99.871 E0.02293
G1 X102.103 Y99.914 E0.02259
G1 X102.578 Y99.984 E0.01507
G1 X103.048 Y100.085 E0.01506
G1 X103.748 Y100.299 E0.02293
G1 X104.416 Y100.568 E0.02259
G1 X104.844 Y100.786 E0.01507
G1 X105.260 Y101.032 E0.01514
G1 X105.658 Y101.304 E0.01514
G1 X106.038 Y101.601 E0.01514
G1 X106.398 Y101.923 E0.01514
G1 X106.735 Y102.265 E0.01506
G1 X107.201 Y102.829 E0.02293
G1 X107.609 Y103.420 E0.02252
G1 X107.957 Y104.061 E0.02286
G1 X108.244 Y104.722 E0.02259
G1 X108.397 Y105.178 E0.01507
G1 X108.520 Y105.644 E0.01514
G1 X108.614 Y106.118 E0.01514
G1 X108.676 Y106.597 E0.01514
G1 X108.707 Y107.078 E0.01514
G1 X108.707 Y107.559 E0.01506
G1 X108.644 Y108.288 E0.02293
G1 X108.520 Y108.995 E0.02252
G1 X108.318 Y109.696 E0.02286
G1 X108.059 Y110.368 E0.02259
G1 X107.849 Y110.800 E0.01507
G1 X107.610 Y111.219 E0.01514
G1 X107.345 Y111.620 E0.01506
G1 X106.891 Y112.194 E0.02293
G1 X106.398 Y112.716 E0.02252
G1 X105.844 Y113.190 E0.02286
G1 X105.259 Y113.608 E0.02252
G1 X104.624 Y113.965 E0.02286
G1 X103.968 Y114.263 E0.02259
G1 X103.515 Y114.423 E0.01507
G1 X103.050 Y114.554 E0.01514
G1 X102.578 Y114.655 E0.01514
G1 X102.101 Y114.725 E0.01514
G1 X101.620 Y114.764 E0.01514
G1 X101.137 Y114.772 E0.01514
G1 X100.655 Y114.749 E0.01514
G1 X100.175 Y114.694 E0.01514
G1 X99.700 Y114.609 E0.01514
G1 X99.232 Y114.493 E0.01514
G1 X98.771 Y114.346 E0.01514
G1 X98.322 Y114.171 E0.01514
G1 X97.885 Y113.966 E0.01514
G1 X97.461 Y113.734 E0.01514
G1 X97.054 Y113.475 E0.01514
G1 X96.665 Y113.190 E0.01514
G1 X96.294 Y112.880 E0.01514
G1 X95.945 Y112.547 E0.01514
G1 X95.617 Y112.192 E0.01514
G1 X95.314 Y111.817 E0.01514
G1 X95.035 Y111.423 E0.01513
G1 X94.782 Y111.010 E0.01520
G1 X94.557 Y110.585 E0.01507
G1 X94.360 Y110.144 E0.01514
G1 X94.192 Y109.692 E0.01514
G1 X94.053 Y109.229 E0.01514
G1 X93.944 Y108.759 E0.01514
G1 X93.867 Y108.283 E0.01514
G1 X93.820 Y107.802 E0.01514
G1 X93.804 Y107.320 E0.01514
G1 X93.820 Y106.837 E0.01514
G1 X93.867 Y106.357 E0.01514
G1 X93.944 Y105.880 E0.01514
G1 X94.053 Y105.410 E0.01514
G1 X94.192 Y104.948 E0.01514
G1 X94.360 Y104.495 E0.01514
G1 X94.557 Y104.055 E0.01514
G1 X94.782 Y103.630 E0.01507
G1 X95.034 Y103.218 E0.01513
G1 X95.227 Y102.958 E0.01018
G1 X95.608 Y102.943 F10800.000
;WIPE_START
G1 F8640.000
G1 X95.469 Y102.631 E-0.09393
G1 X95.946 Y102.091 E-0.16637
G1 X96.294 Y101.759 E-0.11094
G1 X96.665 Y101.450 E-0.11146
G1 X97.054 Y101.165 E-0.11146
G1 X97.461 Y100.905 E-0.11146
G1 X97.668 Y100.792 E-0.05438
;WIPE_END
G1 E-0.04000 F2100.000
G1 Z0.600 F10800.000
G1 X107.129 Y103.587
G1 Z0.200
G1 E0.80000 F2100.000
;TYPE:Solid infill
;WIDTH:0.420258
G1 F1200.000
G1 X105.941 Y102.399 E0.05269
G1 X105.615 Y102.108 E0.01373
G1 X105.268 Y101.837 E0.01380
G1 X104.905 Y101.589 E0.01380
G1 X104.526 Y101.365 E0.01380
G1 X104.215 Y101.206 E0.01096
G1 X107.366 Y104.357 E0.13981
G1 X107.627 Y104.959 E0.02059
G1 X107.725 Y105.250 E0.00963
G1 X103.338 Y100.864 E0.19465
G1 X102.882 Y100.724 E0.01497
G1 X102.606 Y100.665 E0.00886
G1 X107.912 Y105.971 E0.23545
G1 X108.011 Y106.604 E0.02010
G1 X101.975 Y100.568 E0.26784
G1 X101.408 Y100.534 E0.01784
G1 X108.047 Y107.174 E0.29461
G1 X108.033 Y107.693 E0.01631
G1 X100.885 Y100.545 E0.31718
G1 X100.391 Y100.585 E0.01554
G1 X107.991 Y108.184 E0.33719
G1 X107.912 Y108.640 E0.01450
G1 X99.932 Y100.659 E0.35409
G1 X99.500 Y100.760 E0.01394
G1 X107.811 Y109.072 E0.36880
G1 X107.692 Y109.486 E0.01352
G1 X99.090 Y100.884 E0.38167
M73 Q2 S24
G1 X98.701 Y101.029 E0.01302
G1 X107.543 Y109.871 E0.39235
M73 P2 R24
G1 X107.385 Y110.246 E0.01277
G1 X98.331 Y101.193 E0.40172
G1 X97.979 Y101.374 E0.01243
G1 X107.204 Y110.599 E0.40933
G1 X107.006 Y110.935 E0.01223
G1 X97.643 Y101.572 E0.41547
G1 X97.323 Y101.786 E0.01207
G1 X106.793 Y111.255 E0.42019
G1 X106.557 Y111.553 E0.01192
G1 X97.018 Y102.014 E0.42326
G1 X96.728 Y102.258 E0.01188
G1 X106.314 Y111.844 E0.42537
G1 X106.055 Y112.119 E0.01184
G1 X96.454 Y102.518 E0.42600
G1 X96.201 Y102.799 E0.01186
G1 X105.780 Y112.377 E0.42501
G1 X105.492 Y112.623 E0.01188
G1 X95.954 Y103.085 E0.42322
G1 X95.727 Y103.391 E0.01197
G1 X105.185 Y112.850 E0.41968
G1 X104.905 Y113.050 E0.01081
G1 X104.871 Y113.069 E0.00122
G1 X95.509 Y103.707 E0.41543
G1 X95.310 Y104.042 E0.01222
G1 X104.529 Y113.261 E0.40908
G1 X104.178 Y113.443 E0.01242
G1 X95.128 Y104.394 E0.40153
G1 X94.964 Y104.763 E0.01269
G1 X103.811 Y113.610 E0.39253
G1 X103.423 Y113.756 E0.01299
G1 X94.820 Y105.152 E0.38176
G1 X94.696 Y105.562 E0.01344
G1 X103.013 Y113.879 E0.36904
G1 X102.580 Y113.980 E0.01394
G1 X94.595 Y105.995 E0.35431
G1 X94.520 Y106.454 E0.01458
G1 X102.122 Y114.055 E0.33730
G1 X101.634 Y114.101 E0.01537
G1 X94.477 Y106.944 E0.31760
G1 X94.469 Y107.470 E0.01652
G1 X101.110 Y114.110 E0.29464
G1 X100.537 Y114.071 E0.01801
G1 X94.506 Y108.040 E0.26760
G1 X94.601 Y108.669 E0.01994
G1 X99.908 Y113.976 E0.23547
M73 Q3 S24
G1 X99.183 Y113.785 E0.02350
G1 X94.791 Y109.392 E0.19490
M73 P3 R24
G1 X94.971 Y109.894 E0.01672
G1 X95.143 Y110.278 E0.01322
G1 X98.294 Y113.429 E0.13981
G1 X97.798 Y113.166 E0.01763
G1 X97.427 Y112.930 E0.01380
G1 X97.071 Y112.670 E0.01380
G1 X96.734 Y112.388 E0.01380
G1 X96.416 Y112.084 E0.01379
G1 X95.382 Y111.051 E0.04585
; stop printing object BNC Cap v3.stl id:1 copy 0
; printing object BNC Cap v3.stl id:0 copy 0
;WIPE_START
G1 F8640.000
G1 X96.416 Y112.084 E-0.33746
G1 X96.734 Y112.388 E-0.10151
G1 X97.071 Y112.670 E-0.10159
G1 X97.427 Y112.930 E-0.10159
G1 X97.798 Y113.166 E-0.10159
G1 X97.860 Y113.199 E-0.01627
;WIPE_END
G1 E-0.04000 F2100.000
G1 Z0.600 F10800.000
G1 X118.055 Y106.366
G1 Z0.200
G1 E0.80000 F2100.000
;TYPE:Perimeter
;WIDTH:0.42
G1 F1200.000
G1 X117.981 Y105.914 E0.01437
G1 X117.936 Y105.458 E0.01437
G1 X117.922 Y105.000 E0.01437
G1 X117.936 Y104.542 E0.01437
G1 X117.981 Y104.086 E0.01437
G1 X118.055 Y103.634 E0.01437
G1 X118.158 Y103.187 E0.01437
G1 X118.289 Y102.748 E0.01437
G1 X118.449 Y102.319 E0.01437
G1 X118.637 Y101.900 E0.01437
G1 X118.850 Y101.497 E0.01431
G1 X119.087 Y101.110 E0.01423
G1 X119.503 Y100.548 E0.02191
G1 X119.958 Y100.033 E0.02157
G1 X120.286 Y99.721 E0.01417
G1 X120.637 Y99.427 E0.01437
G1 X121.007 Y99.156 E0.01437
G1 X121.394 Y98.910 E0.01437
G1 X121.795 Y98.690 E0.01437
G1 X122.211 Y98.496 E0.01437
G1 X122.637 Y98.329 E0.01437
G1 X123.074 Y98.190 E0.01437
G1 X123.519 Y98.080 E0.01437
G1 X123.970 Y97.999 E0.01437
G1 X124.419 Y97.948 E0.01417
G1 X125.118 Y97.929 E0.02191
G1 X125.804 Y97.970 E0.02157
G1 X126.252 Y98.036 E0.01417
G1 X126.693 Y98.130 E0.01417
G1 X127.362 Y98.335 E0.02191
G1 X128.000 Y98.592 E0.02157
G1 X128.403 Y98.797 E0.01417
G1 X128.797 Y99.030 E0.01437
G1 X129.176 Y99.289 E0.01437
G1 X129.537 Y99.571 E0.01437
G1 X129.878 Y99.876 E0.01437
G1 X130.195 Y100.198 E0.01417
G1 X130.640 Y100.737 E0.02191
G1 X131.028 Y101.298 E0.02137
G1 X131.357 Y101.907 E0.02172
G1 X131.632 Y102.538 E0.02157
G1 X131.776 Y102.966 E0.01417
G1 X131.893 Y103.409 E0.01437
G1 X131.981 Y103.859 E0.01437
G1 X132.041 Y104.314 E0.01437
G1 X132.070 Y104.771 E0.01437
G1 X132.070 Y105.223 E0.01417
G1 X132.010 Y105.919 E0.02191
G1 X131.892 Y106.590 E0.02137
G1 X131.700 Y107.256 E0.02171
G1 X131.453 Y107.898 E0.02157
G1 X131.255 Y108.304 E0.01417
G1 X131.028 Y108.702 E0.01437
G1 X130.780 Y109.079 E0.01417
G1 X130.346 Y109.627 E0.02191
G1 X129.878 Y110.123 E0.02137
G1 X129.352 Y110.573 E0.02171
G1 X128.797 Y110.969 E0.02137
G1 X128.193 Y111.309 E0.02171
G1 X127.567 Y111.593 E0.02157
G1 X127.141 Y111.744 E0.01417
G1 X126.700 Y111.868 E0.01437
G1 X126.252 Y111.964 E0.01437
G1 X125.798 Y112.031 E0.01437
G1 X125.341 Y112.068 E0.01437
G1 X124.883 Y112.075 E0.01437
G1 X124.425 Y112.053 E0.01437
G1 X123.970 Y112.001 E0.01437
G1 X123.519 Y111.920 E0.01437
G1 X123.074 Y111.810 E0.01437
G1 X122.637 Y111.671 E0.01437
G1 X122.211 Y111.504 E0.01437
G1 X121.795 Y111.310 E0.01437
G1 X121.394 Y111.090 E0.01437
G1 X121.007 Y110.844 E0.01437
G1 X120.637 Y110.573 E0.01437
G1 X120.286 Y110.279 E0.01437
G1 X119.954 Y109.963 E0.01437
G1 X119.643 Y109.626 E0.01437
G1 X119.355 Y109.270 E0.01437
G1 X119.090 Y108.896 E0.01437
G1 X118.850 Y108.503 E0.01443
G1 X118.637 Y108.100 E0.01431
G1 X118.449 Y107.681 E0.01437
G1 X118.289 Y107.252 E0.01437
G1 X118.158 Y106.813 E0.01437
G1 X118.068 Y106.425 E0.01249
G1 X117.701 Y106.510 F10800.000
;TYPE:External perimeter
G1 F1200.000
G1 X117.607 Y105.963 E0.01740
G1 X117.560 Y105.482 E0.01514
G1 X117.544 Y105.000 E0.01514
G1 X117.560 Y104.518 E0.01514
G1 X117.607 Y104.037 E0.01514
G1 X117.685 Y103.561 E0.01514
